X:97
%%topspace -50
%%musicspace -10
T:Oyster Girl
M:6/8
L:1/8
K:G
Bc | "G"ded B2G | "D"A2F D3 | "G"GFG BGB | "D7"d2c A3 | 
"G"ded B2g | "C"f2e c2e | "G"d2B "D7"cBA | "G"G3- G :| 
|: dc | "G"Bcd Bcd | "C"e2c edc | "D7"ABc ABc | "G"d2B dcB | 
"G"ded Bdg | "C"f2e c2e | "G"d2B "D7"cBA | "G"G3- G :|]

